X:105
T:Heave Away, Me Johnnies (a)
M:6/8
L:1/8
Q:1/4=90
K:Bb
B2G|\
F2D F2G|BBc-c2B|d2c (BA)G|F3 B2c|
(d3  dc)B|F2B(dc)B|c3  z2A|B3 z2B|
e2e d>cB|c2c B2A|G2A(cB)A|F3 B2G|
F3  z2D |F2G B2c|d3 (cB)c|B3   ||
